src/wp-content/themes/aquaban/assets/images/tariffs_circle.svg

<svg width="300" height="300" fill="none" xmlns="http://www.w3.org/2000/svg"><path fill-rule="evenodd" clip-rule="evenodd" d="M150 199c27.062 0 49-21.938 49-49s-21.938-49-49-49-49 21.938-49 49 21.938 49 49 49zm0 1c27.614 0 50-22.386 50-50s-22.386-50-50-50-50 22.386-50 50 22.386 50 50 50z" fill="#00AFEA"/><path fill-rule="evenodd" clip-rule="evenodd" d="M150 249c54.676 0 99-44.324 99-99s-44.324-99-99-99-99 44.324-99 99 44.324 99 99 99zm0 1c55.228 0 100-44.772 100-100S205.228 50 150 50 50 94.772 50 150s44.772 100 100 100z" fill="#65CEF1"/><path fill-rule="evenodd" clip-rule="evenodd" d="M150 299c82.29 0 149-66.71 149-149S232.29 1 150 1 1 67.71 1 150s66.71 149 149 149zm0 1c82.843 0 150-67.157 150-150S232.843 0 150 0 0 67.157 0 150s67.157 150 150 150z" fill="#97DDF5"/></svg>

<svg width="300" height="300" viewBox="0 0 300 300" fill="none" xmlns="http://www.w3.org/2000/svg">
<path fill-rule="evenodd" clip-rule="evenodd" d="M150 199C177.062 199 199 177.062 199 150C199 122.938 177.062 101 150 101C122.938 101 101 122.938 101 150C101 177.062 122.938 199 150 199ZM150 200C177.614 200 200 177.614 200 150C200 122.386 177.614 100 150 100C122.386 100 100 122.386 100 150C100 177.614 122.386 200 150 200Z" fill="#00AFEA"/>
<path fill-rule="evenodd" clip-rule="evenodd" d="M150 249C204.676 249 249 204.676 249 150C249 95.3238 204.676 51 150 51C95.3238 51 51 95.3238 51 150C51 204.676 95.3238 249 150 249ZM150 250C205.228 250 250 205.228 250 150C250 94.7715 205.228 50 150 50C94.7715 50 50 94.7715 50 150C50 205.228 94.7715 250 150 250Z" fill="#65CEF1"/>
<path fill-rule="evenodd" clip-rule="evenodd" d="M150 299C232.29 299 299 232.29 299 150C299 67.7096 232.29 1 150 1C67.7096 1 1 67.7096 1 150C1 232.29 67.7096 299 150 299ZM150 300C232.843 300 300 232.843 300 150C300 67.1573 232.843 0 150 0C67.1573 0 0 67.1573 0 150C0 232.843 67.1573 300 150 300Z" fill="#97DDF5"/>
</svg>
